dist/svg/alert.svg

<svg width="16" height="16" viewBox="0 0 16 16" fill="rgb(34, 34, 34)" xmlns="http://www.w3.org/2000/svg"><title>alert</title><path d="M6.00002 14H10C10 15.105 9.10502 16 8.00002 16C6.89502 16 6.00002 15.105 6.00002 14ZM15 12C13.763 10.752 12.999 9.033 12.999 7.137C12.999 7.089 12.999 7.041 13 6.993V7V6C13 3.593 11.299 1.582 9.03302 1.106L9.00002 1.1V1C9.00002 0.448 8.55202 0 8.00002 0C7.44802 0 7.00002 0.448 7.00002 1C7.00002 1 7.00002 1.07 7.00002 1.1C4.70102 1.582 3.00002 3.592 3.00002 5.999V7C3.00102 7.041 3.00102 7.089 3.00102 7.137C3.00102 9.034 2.23702 10.752 0.999023 12.001L1.00002 12V13H15V12Z" fill="rgb(34, 34, 34)" fill-opacity="1.00"/></svg>

<!-- Generated by Trend Micro Style Portal -->
<svg version="1.1" xmlns="http://www.w3.org/2000/svg" width="16" height="16" viewBox="0 0 16 16">
  <title>alert</title>
  <path fill="rgb(34,34,34)" d="M6 14h4c0 1.105-0.895 2-2 2s-2-0.895-2-2v0zM15 12c-1.237-1.248-2.001-2.967-2.001-4.863 0-0.048 0-0.096 0.001-0.144l-0 0.007v-1c0-0 0-0.001 0-0.001 0-2.407-1.701-4.417-3.967-4.893l-0.033-0.006s0-0.1 0-0.1c0-0.552-0.448-1-1-1s-1 0.448-1 1v0s0 0.070 0 0.1c-2.299 0.482-4 2.492-4 4.899 0 0 0 0.001 0 0.001v-0 1c0.001 0.041 0.001 0.089 0.001 0.137 0 1.897-0.764 3.615-2.002 4.864l0.001-0.001v1h14v-1z"></path>
</svg>
